source/images/icons/icon-editorial/permis-stationnement.svg

<?xml version="1.0" encoding="UTF-8"?>
<svg width="80px" height="80px" viewBox="0 0 80 80" version="1.1" xmlns="http://www.w3.org/2000/svg" xmlns:xlink="http://www.w3.org/1999/xlink">
    <!-- Generator: Sketch 55.2 (78181) - https://sketchapp.com -->
    <title>Illustrative Icons/Permis-Stationnement</title>
    <desc>Created with Sketch.</desc>
    <g id="Illustrative-Icons/Permis-Stationnement" stroke="none" stroke-width="1" fill="none" fill-rule="evenodd">
        <path d="M8.66666667,17 C7.75,17 7,17.75 7,18.6666667 C7,19.5833333 7.75,20.3333333 8.66666667,20.3333333 C9.58333334,20.3333333 10.3333333,19.5833333 10.3333333,18.6666667 C10.3333333,17.75 9.58333334,17 8.66666667,17 Z M15.3499348,17 C14.4332682,17 13.6832682,17.75 13.6832682,18.6666667 C13.6832682,19.5833333 14.4332682,20.3333333 15.3499348,20.3333333 L68.6666667,20.3333333 C69.5833334,20.3333333 70.3333334,21.0833333 70.3333334,22 L70.3333334,37 L45.3665367,37 C42.6165367,37 40.3665367,39.25 40.3665367,42 L40.3665367,60.3333334 L12,60.3333334 C11.0833333,60.3333334 10.3333333,59.5833334 10.3333333,58.6666667 L10.3333333,28.6666667 C10.3333333,27.75 9.58333334,27 8.66666667,27 C7.75,27 7,27.75 7,28.6666667 L7,58.6666667 C7,61.4166667 9.25,63.6666667 12,63.6666667 L68.6666667,63.6666667 C71.4166667,63.6666667 73.6666667,61.4166667 73.6666667,58.6666667 L73.6666667,22 C73.6666667,19.25 71.4166667,17 68.6666667,17 L15.3499348,17 Z M41.8834634,27 C40.9667967,27 40.2167967,27.75 40.2167967,28.6666667 C40.2167967,29.5833333 40.9667967,30.3333333 41.8834634,30.3333333 L65.4332684,30.3333333 C66.3499351,30.3333333 67.0999351,29.5833333 67.0999351,28.6666667 C67.0999351,27.75 66.3499351,27 65.4332684,27 L41.8834634,27 Z M15.3333333,33.6666667 C14.4166667,33.6666667 13.6666667,34.4166667 13.6666667,35.3333334 C13.6666667,36.25 14.4166667,37 15.3333333,37 L25.3333334,37 C26.25,37 27,36.25 27,35.3333334 C27,34.4166667 26.25,33.6666667 25.3333334,33.6666667 L15.3333333,33.6666667 Z M45.3665367,40.3333334 L70.3333334,40.3333334 L70.3333334,58.6666667 C70.3333334,59.5833334 69.5833334,60.3333334 68.6666667,60.3333334 L43.69987,60.3333334 L43.69987,42 C43.69987,41.0833334 44.44987,40.3333334 45.3665367,40.3333334 L45.3665367,40.3333334 Z M15.3333333,42 C14.4166667,42 13.6666667,42.75 13.6666667,43.6666667 C13.6666667,44.5833334 14.4166667,45.3333334 15.3333333,45.3333334 L22,45.3333334 C22.9166667,45.3333334 23.6666667,44.5833334 23.6666667,43.6666667 C23.6666667,42.75 22.9166667,42 22,42 L15.3333333,42 Z M52.3499351,43.6334634 C51.2332684,43.6334634 50.2834634,43.9167967 49.4667967,44.4667967 C48.6501301,45.0167967 48.0332684,45.8166017 47.5999351,46.849935 C47.1666017,47.8832684 46.94987,49.1333984 46.94987,50.5667317 C46.94987,52.6667317 47.4001301,54.2833334 48.3001301,55.4166667 C49.2001301,56.55 50.4834634,57.1165367 52.1334634,57.1165367 C52.9667967,57.1165367 53.7167967,56.9334634 54.3834634,56.55013 C55.0501301,56.1667967 55.5666017,55.65013 55.9332684,54.9667967 C56.2999351,54.2834634 56.5000001,53.5166667 56.5000001,52.6666667 C56.5000001,51.85 56.3333334,51.1167967 56.0000001,50.4667967 C55.6666667,49.8167967 55.2165367,49.3165367 54.6165367,48.94987 C54.0665367,48.5832034 53.4000651,48.4166667 52.6500651,48.4166667 C52.0167317,48.4166667 51.44987,48.55 50.94987,48.8333334 C50.44987,49.1166667 50.0499351,49.4834634 49.7666017,49.9667967 C49.8166017,48.65013 50.0665367,47.64987 50.5332034,46.94987 C50.9998701,46.2665367 51.6334634,45.9166667 52.4667967,45.9166667 C53.4501301,45.9166667 54.4998701,46.3332684 55.6165367,47.1832684 L56.5166017,45.1165367 C55.9999351,44.64987 55.3667967,44.2832684 54.6334634,44.0166017 C53.9001301,43.7666017 53.1332684,43.6334634 52.3499351,43.6334634 L52.3499351,43.6334634 Z M62.5667317,43.6832684 C61.0333984,43.6832684 59.8498701,44.2666667 59.0332034,45.4166667 C58.2165367,46.5666667 57.8001301,48.2334634 57.8001301,50.3834634 C57.8001301,52.5667967 58.1999351,54.250065 59.0166017,55.400065 C59.8666017,56.550065 61.0333334,57.1334634 62.5833334,57.1334634 C64.1333334,57.1334634 65.3165367,56.550065 66.1165367,55.400065 C66.9332034,54.250065 67.3333334,52.5667967 67.3333334,50.3834634 C67.3333334,48.2167967 66.9166017,46.5666667 66.0999351,45.4166667 C65.2832684,44.2666667 64.1000651,43.6832684 62.5667317,43.6832684 Z M62.5833334,45.8834634 C63.2833334,45.8834634 63.7998701,46.2332034 64.1165367,46.94987 C64.4332034,47.6665367 64.5999351,48.79987 64.5999351,50.3665367 C64.5999351,51.94987 64.4332034,53.100065 64.1165367,53.8167317 C63.7998701,54.550065 63.2833334,54.900065 62.5833334,54.900065 C61.8833334,54.900065 61.3667967,54.5333984 61.0501301,53.8167317 C60.7334634,53.100065 60.5667317,51.94987 60.5667317,50.3665367 C60.5667317,48.79987 60.7334634,47.6665367 61.0501301,46.94987 C61.3667967,46.2332034 61.8833334,45.8834634 62.5833334,45.8834634 Z M15.4498698,50.3333334 C14.5332032,50.3333334 13.7832032,51.0833334 13.7832032,52 C13.7832032,52.9166667 14.5332032,53.6666667 15.4498698,53.6666667 L23.7832032,53.6666667 C24.69987,53.6666667 25.44987,52.9166667 25.44987,52 C25.44987,51.0833334 24.69987,50.3333334 23.7832032,50.3333334 L15.4498698,50.3333334 Z M52.0000001,50.6666667 C52.5666667,50.6666667 53.0165367,50.8666667 53.3665367,51.25 C53.7165367,51.6333334 53.8834634,52.1332684 53.8834634,52.7666017 C53.8834634,53.399935 53.7165367,53.9167967 53.3665367,54.30013 C53.0165367,54.6834634 52.5666667,54.8665367 52.0000001,54.8665367 C51.4333334,54.8665367 50.9665367,54.6665367 50.6165367,54.2832034 C50.2665367,53.8832034 50.0833334,53.3832684 50.0833334,52.7666017 C50.0833334,52.149935 50.2498701,51.6333334 50.6165367,51.25 C50.9665367,50.8666667 51.4333334,50.6666667 52.0000001,50.6666667 Z" id="Shape-color" fill="#ADB5BD"></path>
    </g>
</svg>

<svg width="80" height="80">
    <title>
        Illustrative Icons/Permis-Stationnement
    </title>
    <path d="M8.667 17C7.75 17 7 17.75 7 18.667c0 .916.75 1.666 1.667 1.666.916 0 1.666-.75 1.666-1.666 0-.917-.75-1.667-1.666-1.667zm6.683 0c-.917 0-1.667.75-1.667 1.667 0 .916.75 1.666 1.667 1.666h53.317c.916 0 1.666.75 1.666 1.667v15H45.367c-2.75 0-5 2.25-5 5v18.333H12c-.917 0-1.667-.75-1.667-1.666v-30c0-.917-.75-1.667-1.666-1.667C7.75 27 7 27.75 7 28.667v30c0 2.75 2.25 5 5 5h56.667c2.75 0 5-2.25 5-5V22c0-2.75-2.25-5-5-5H15.35zm26.533 10c-.916 0-1.666.75-1.666 1.667 0 .916.75 1.666 1.666 1.666h23.55c.917 0 1.667-.75 1.667-1.666 0-.917-.75-1.667-1.667-1.667h-23.55zm-26.55 6.667c-.916 0-1.666.75-1.666 1.666 0 .917.75 1.667 1.666 1.667h10C26.25 37 27 36.25 27 35.333c0-.916-.75-1.666-1.667-1.666h-10zm30.034 6.666h24.966v18.334c0 .916-.75 1.666-1.666 1.666H43.7V42c0-.917.75-1.667 1.667-1.667zM15.333 42c-.916 0-1.666.75-1.666 1.667 0 .916.75 1.666 1.666 1.666H22c.917 0 1.667-.75 1.667-1.666 0-.917-.75-1.667-1.667-1.667h-6.667zm37.017 1.633c-1.117 0-2.067.284-2.883.834-.817.55-1.434 1.35-1.867 2.383-.433 1.033-.65 2.283-.65 3.717 0 2.1.45 3.716 1.35 4.85.9 1.133 2.183 1.7 3.833 1.7.834 0 1.584-.184 2.25-.567a3.937 3.937 0 0 0 1.55-1.583c.367-.684.567-1.45.567-2.3 0-.817-.167-1.55-.5-2.2-.333-.65-.783-1.15-1.383-1.517-.55-.367-1.217-.533-1.967-.533-.633 0-1.2.133-1.7.416-.5.284-.9.65-1.183 1.134.05-1.317.3-2.317.766-3.017.467-.683 1.1-1.033 1.934-1.033.983 0 2.033.416 3.15 1.266l.9-2.066c-.517-.467-1.15-.834-1.884-1.1a7.06 7.06 0 0 0-2.283-.384zm10.217.05c-1.534 0-2.717.584-3.534 1.734-.816 1.15-1.233 2.816-1.233 4.966 0 2.184.4 3.867 1.217 5.017.85 1.15 2.016 1.733 3.566 1.733 1.55 0 2.734-.583 3.534-1.733.816-1.15 1.216-2.833 1.216-5.017 0-2.166-.416-3.816-1.233-4.966-.817-1.15-2-1.734-3.533-1.734zm.016 2.2c.7 0 1.217.35 1.534 1.067.316.717.483 1.85.483 3.417 0 1.583-.167 2.733-.483 3.45-.317.733-.834 1.083-1.534 1.083-.7 0-1.216-.367-1.533-1.083-.317-.717-.483-1.867-.483-3.45 0-1.567.166-2.7.483-3.417.317-.717.833-1.067 1.533-1.067zm-47.133 4.45c-.917 0-1.667.75-1.667 1.667s.75 1.667 1.667 1.667h8.333c.917 0 1.667-.75 1.667-1.667s-.75-1.667-1.667-1.667H15.45zm36.55.334c.567 0 1.017.2 1.367.583.35.383.516.883.516 1.517 0 .633-.166 1.15-.516 1.533s-.8.567-1.367.567-1.033-.2-1.383-.584c-.35-.4-.534-.9-.534-1.516 0-.617.167-1.134.534-1.517.35-.383.816-.583 1.383-.583z" fill="#ADB5BD" fill-rule="evenodd"/>
</svg>
